Suru++-Ubuntu/apps/scalable/photocollage.svg

<svg width="256" height="256" version="1.1" viewBox="0 0 67.73 67.73" xmlns="http://www.w3.org/2000/svg" xmlns:xlink="http://www.w3.org/1999/xlink">
 <defs>
  <linearGradient id="linearGradient1108" x1="296" x2="296" y1="-212" y2="236" gradientUnits="userSpaceOnUse">
   <stop style="stop-color:#ffffff" offset="0"/>
   <stop style="stop-color:#ffffff;stop-opacity:.09803922" offset=".125"/>
   <stop style="stop-color:#000000;stop-opacity:.09803922" offset=".925"/>
   <stop style="stop-color:#000000;stop-opacity:.49803922" offset="1"/>
  </linearGradient>
  <clipPath id="clipPath1082">
   <path d="M 361.9375,-212 C 507.2348,-212 528,-191.28677 528,-46.125 V 70.125 C 528,215.28618 507.2348,236 361.9375,236 H 214.0625 C 68.7652,236 48,215.28618 48,70.125 V -46.125 C 48,-191.28677 68.7652,-212 214.0625,-212 Z" style="fill:#8c59d9"/>
  </clipPath>
  <filter id="filter1015" x="-.02" y="-.03" width="1.046" height="1.05" style="color-interpolation-filters:sRGB">
   <feGaussianBlur stdDeviation="2.32"/>
  </filter>
 </defs>
 <g transform="translate(0,-229.26666)">
  <path d="m43.837429 232.36713c19.593906 0 22.394174 2.79326 22.394174 22.36889v15.67676c0 19.57555-2.800268 22.36889-22.394174 22.36889h-19.94152c-19.593908 0-22.394176-2.79334-22.394176-22.36889v-15.67676c0-19.57563 2.8002684-22.36889 22.394176-22.36889z" style="fill:none;opacity:.2;stroke-linecap:round;stroke-linejoin:round;stroke-width:1.0788312;stroke:#000000"/>
  <path transform="matrix(.26970778 0 0 .26970778 -7.1289177 220.49999)" d="m188.96876 45.999995c72.64865 0 83.03125 10.356615 83.03125 82.937505v58.125c0 72.58059-10.3826 82.9375-83.03125 82.9375h-73.9375c-72.648654 0-83.031254-10.35691-83.031254-82.9375v-58.125c0-72.58089 10.3826-82.937505 83.031254-82.937505z" style="filter:url(#filter1015);opacity:.2"/>
  <path d="m23.895906 232.36713c-19.593906 0-22.394174 2.79326-22.394174 22.36889v15.67676c0 19.57555 2.8002681 22.36889 22.394174 22.36889h9.970758v-60.41454z" style="fill:#02171f;opacity:.05"/>
  <path transform="matrix(.26458333 0 0 .26458333 0 229.26666)" d="m125 11.71875v71.6875h-119.01367l-0.1445312 6.001953h119.1582v150.64649h6v-69.99805h118.97461l0.14453-6.00195h-119.11914v-152.33594z" style="fill:#666666"/>
  <path transform="matrix(.26458333 0 0 .26458333 0 229.26666)" d="m125 11.71875h-34.685547c-9.256963 0-17.521677 0.164478-24.898437 0.597656-3.688381 0.21659-7.155044 0.499673-10.41211 0.863282-3.257066 0.363608-6.304674 0.807305-9.15625 1.34375-2.851576 0.536444-5.506605 1.165293-7.978515 1.90039-2.471911 0.735097-4.760837 1.577543-6.878907 2.53711-2.118069 0.959566-4.065415 2.036242-5.855468 3.246093-1.790053 1.209852-3.422296 2.553109-4.910157 4.039063-1.48786 1.485953-2.831476 3.116424-4.042968 4.904297-1.211493 1.787872-2.291004 3.732049-3.251953 5.847656-0.96095 2.115607-1.802833 4.401935-2.539063 6.871094-0.7362301 2.469159-1.3669615 5.122176-1.9042969 7.970703-0.5373353 2.848527-0.9814382 5.892773-1.3457031 9.146484-0.3642649 3.253712-0.6482155 6.715678-0.8652344 10.400391-0.2097256 3.560881-0.1931397 8.032426-0.2890625 12.019531h119.01367v-71.6875z" style="fill:#c00ac2"/>
  <path transform="matrix(.26458333 0 0 .26458333 0 229.26666)" d="m131 240.05664h34.68555c9.25696 0 17.52167-0.16447 24.89843-0.59766 3.68838-0.21659 7.15505-0.50162 10.41211-0.86523 3.25707-0.36361 6.30468-0.80535 9.15625-1.3418 2.85158-0.53645 5.50661-1.16724 7.97852-1.90234s4.76084-1.57558 6.87891-2.53516c2.11807-0.95957 4.06541-2.03819 5.85546-3.24804 1.79006-1.20986 3.4223-2.55115 4.91016-4.03711s2.83148-3.11642 4.04297-4.9043 2.291-3.73205 3.25195-5.84766 1.80283-4.40193 2.53907-6.87109c0.73623-2.46916 1.36696-5.12218 1.90429-7.9707 0.53734-2.84853 0.98144-5.89278 1.34571-9.14649 0.36426-3.2537 0.64821-6.71569 0.86523-10.40039 0.18028-3.06095 0.15502-6.95735 0.25-10.33203h-118.97461v70z" style="fill:#e1bd30"/>
  <path transform="matrix(.26458333 0 0 .26458333 0 229.26666)" d="m5.8417969 89.408203c-0.0272672 2.399782-0.1660157 4.305425-0.1660157 6.853516v59.251951c1e-7 9.24829 0.1655716 17.5056 0.5996094 24.875 0.2170189 3.6847 0.5009695 7.14669 0.8652344 10.40039 0.3642649 3.25371 0.8083678 6.29796 1.3457031 9.14649 0.5373354 2.84852 1.1680668 5.50154 1.9042969 7.9707 0.73623 2.46916 1.578113 4.75548 2.539063 6.87109 0.960949 2.11561 2.04046 4.05978 3.251953 5.84766 1.211492 1.78788 2.555108 3.41834 4.042968 4.9043 1.487861 1.48596 3.120104 2.82725 4.910157 4.03711 1.790053 1.20985 3.737399 2.28847 5.855468 3.24804 2.11807 0.95958 4.406996 1.80006 6.878907 2.53516 2.47191 0.7351 5.126939 1.36589 7.978515 1.90234s5.899184 0.97819 9.15625 1.3418 6.723729 0.64864 10.41211 0.86523c7.37676 0.43319 15.641474 0.59766 24.898437 0.59766h34.685547v-150.64844h-119.1582z" style="fill:#ff498a"/>
  <path transform="matrix(.26458333 0 0 .26458333 0 229.26666)" d="m250.11914 164.05469c0.04317-2.94596 0.20508-5.36556 0.20508-8.54102v-59.251951c0-9.248329-0.16557-17.505575-0.59961-24.875-0.21702-3.684713-0.50097-7.146679-0.86523-10.400391-0.36427-3.253711-0.80837-6.297957-1.34571-9.146484-0.53733-2.848527-1.16806-5.501544-1.90429-7.970703-0.73624-2.469159-1.57812-4.755487-2.53907-6.871094s-2.04046-4.059784-3.25195-5.847656c-1.21149-1.787873-2.55511-3.418344-4.04297-4.904297-1.48786-1.485954-3.1201-2.829211-4.91016-4.039063-1.79005-1.209851-3.73739-2.286527-5.85546-3.246093-2.11807-0.959567-4.407-1.802013-6.87891-2.53711s-5.12694-1.363946-7.97852-1.90039c-2.85157-0.536445-5.89918-0.980142-9.15625-1.34375-3.25706-0.363609-6.72373-0.646692-10.41211-0.863282-7.37676-0.433178-15.64147-0.597656-24.89843-0.597656h-34.68555v152.33594h119.11914z" style="fill:#21af2b"/>
  <path transform="matrix(.13485389 0 0 .13485389 -4.9712557 260.95615)" d="M 361.9375,-212 C 507.2348,-212 528,-191.28677 528,-46.125 V 70.125 C 528,215.28618 507.2348,236 361.9375,236 H 214.0625 C 68.7652,236 48,215.28618 48,70.125 V -46.125 C 48,-191.28677 68.7652,-212 214.0625,-212 Z" clip-path="url(#clipPath1082)" style="fill:none;opacity:.5;stroke-linecap:round;stroke-linejoin:round;stroke-width:8;stroke:url(#linearGradient1108)"/>
 </g>
</svg>

<svg xmlns="http://www.w3.org/2000/svg" xmlns:xlink="http://www.w3.org/1999/xlink" width="256" height="256" version="1.1" viewBox="0 0 67.73 67.73">
 <defs>
  <linearGradient id="linearGradient1108" x1="296" x2="296" y1="-212" y2="236" gradientUnits="userSpaceOnUse" xlink:href="#linearGradient1013"/>
  <linearGradient id="linearGradient1013">
   <stop style="stop-color:#ffffff" offset="0"/>
   <stop offset=".125" style="stop-color:#ffffff;stop-opacity:0.09803922"/>
   <stop offset=".925" style="stop-color:#000000;stop-opacity:0.09803922"/>
   <stop style="stop-color:#000000;stop-opacity:0.49803922" offset="1"/>
  </linearGradient>
  <clipPath id="clipPath1082" clipPathUnits="userSpaceOnUse">
   <path style="fill:#8c59d9" d="M 361.9375,-212 C 507.2348,-212 528,-191.28677 528,-46.125 V 70.125 C 528,215.28618 507.2348,236 361.9375,236 H 214.0625 C 68.7652,236 48,215.28618 48,70.125 V -46.125 C 48,-191.28677 68.7652,-212 214.0625,-212 Z"/>
  </clipPath>
  <filter id="filter1015" width="1.046" height="1.05" x="-.02" y="-.03" style="color-interpolation-filters:sRGB">
   <feGaussianBlur stdDeviation="2.32"/>
  </filter>
 </defs>
 <g transform="translate(0,-229.26666)">
  <path style="opacity:0.2;fill:none;stroke:#000000;stroke-width:1.0788312;stroke-linecap:round;stroke-linejoin:round" d="m 43.837429,232.36713 c 19.593906,0 22.394174,2.79326 22.394174,22.36889 v 15.67676 c 0,19.57555 -2.800268,22.36889 -22.394174,22.36889 h -19.94152 c -19.5939075,0 -22.3941759,-2.79334 -22.3941759,-22.36889 v -15.67676 c 0,-19.57563 2.8002684,-22.36889 22.3941759,-22.36889 z"/>
  <path style="opacity:0.2;filter:url(#filter1015)" d="m 188.96876,45.999995 c 72.64865,0 83.03125,10.356615 83.03125,82.937505 v 58.125 c 0,72.58059 -10.3826,82.9375 -83.03125,82.9375 h -73.9375 C 42.382606,270 32.000006,259.64309 32.000006,187.0625 v -58.125 c 0,-72.58089 10.3826,-82.937505 83.031254,-82.937505 z" transform="matrix(0.26970778,0,0,0.26970778,-7.1289177,220.49999)"/>
  <path d="m 23.895906,232.36713 c -19.5939064,0 -22.3941745,2.79326 -22.3941745,22.36889 v 15.67676 c 0,19.57555 2.8002681,22.36889 22.3941745,22.36889 h 9.970758 v -20.48409 -19.44635 -20.4841 z" style="opacity:0.05;fill:#02171f"/>
  <path d="m 125,11.71875 v 71.6875 H 5.9863281 L 5.8417969,89.408203 H 125 V 240.05469 h 6 v -69.99805 h 118.97461 l 0.14453,-6.00195 H 131 V 11.71875 Z" transform="matrix(0.26458333,0,0,0.26458333,0,229.26666)" style="fill:#666666"/>
  <path d="M 125 11.71875 L 90.314453 11.71875 C 81.05749 11.71875 72.792776 11.883228 65.416016 12.316406 C 61.727635 12.532996 58.260972 12.816079 55.003906 13.179688 C 51.74684 13.543296 48.699232 13.986993 45.847656 14.523438 C 42.99608 15.059882 40.341051 15.688731 37.869141 16.423828 C 35.39723 17.158925 33.108304 18.001371 30.990234 18.960938 C 28.872165 19.920504 26.924819 20.99718 25.134766 22.207031 C 23.344713 23.416883 21.71247 24.76014 20.224609 26.246094 C 18.736749 27.732047 17.393133 29.362518 16.181641 31.150391 C 14.970148 32.938263 13.890637 34.88244 12.929688 36.998047 C 11.968738 39.113654 11.126855 41.399982 10.390625 43.869141 C 9.6543949 46.3383 9.0236635 48.991317 8.4863281 51.839844 C 7.9489928 54.688371 7.5048899 57.732617 7.140625 60.986328 C 6.7763601 64.24004 6.4924095 67.702006 6.2753906 71.386719 C 6.065665 74.9476 6.0822509 79.419145 5.9863281 83.40625 L 125 83.40625 L 125 11.71875 z" transform="matrix(0.26458333,0,0,0.26458333,0,229.26666)" style="fill:#c00ac2"/>
  <path d="M 131 240.05664 L 165.68555 240.05664 C 174.94251 240.05664 183.20722 239.89217 190.58398 239.45898 C 194.27236 239.24239 197.73903 238.95736 200.99609 238.59375 C 204.25316 238.23014 207.30077 237.7884 210.15234 237.25195 C 213.00392 236.7155 215.65895 236.08471 218.13086 235.34961 C 220.60277 234.61451 222.8917 233.77403 225.00977 232.81445 C 227.12784 231.85488 229.07518 230.77626 230.86523 229.56641 C 232.65529 228.35655 234.28753 227.01526 235.77539 225.5293 C 237.26325 224.04334 238.60687 222.41288 239.81836 220.625 C 241.02985 218.83712 242.10936 216.89295 243.07031 214.77734 C 244.03126 212.66173 244.87314 210.37541 245.60938 207.90625 C 246.34561 205.43709 246.97634 202.78407 247.51367 199.93555 C 248.05101 197.08702 248.49511 194.04277 248.85938 190.78906 C 249.22364 187.53536 249.50759 184.07337 249.72461 180.38867 C 249.90489 177.32772 249.87963 173.43132 249.97461 170.05664 L 131 170.05664 L 131 240.05664 z" transform="matrix(0.26458333,0,0,0.26458333,0,229.26666)" style="fill:#e1bd30"/>
  <path d="M 5.8417969 89.408203 C 5.8145297 91.807985 5.6757812 93.713628 5.6757812 96.261719 L 5.6757812 155.51367 C 5.6757813 164.76196 5.8413528 173.01927 6.2753906 180.38867 C 6.4924095 184.07337 6.7763601 187.53536 7.140625 190.78906 C 7.5048899 194.04277 7.9489928 197.08702 8.4863281 199.93555 C 9.0236635 202.78407 9.6543949 205.43709 10.390625 207.90625 C 11.126855 210.37541 11.968738 212.66173 12.929688 214.77734 C 13.890637 216.89295 14.970148 218.83712 16.181641 220.625 C 17.393133 222.41288 18.736749 224.04334 20.224609 225.5293 C 21.71247 227.01526 23.344713 228.35655 25.134766 229.56641 C 26.924819 230.77626 28.872165 231.85488 30.990234 232.81445 C 33.108304 233.77403 35.39723 234.61451 37.869141 235.34961 C 40.341051 236.08471 42.99608 236.7155 45.847656 237.25195 C 48.699232 237.7884 51.74684 238.23014 55.003906 238.59375 C 58.260972 238.95736 61.727635 239.24239 65.416016 239.45898 C 72.792776 239.89217 81.05749 240.05664 90.314453 240.05664 L 125 240.05664 L 125 89.408203 L 5.8417969 89.408203 z" transform="matrix(0.26458333,0,0,0.26458333,0,229.26666)" style="fill:#ff498a"/>
  <path d="M 250.11914 164.05469 C 250.16231 161.10873 250.32422 158.68913 250.32422 155.51367 L 250.32422 96.261719 C 250.32422 87.01339 250.15865 78.756144 249.72461 71.386719 C 249.50759 67.702006 249.22364 64.24004 248.85938 60.986328 C 248.49511 57.732617 248.05101 54.688371 247.51367 51.839844 C 246.97634 48.991317 246.34561 46.3383 245.60938 43.869141 C 244.87314 41.399982 244.03126 39.113654 243.07031 36.998047 C 242.10936 34.88244 241.02985 32.938263 239.81836 31.150391 C 238.60687 29.362518 237.26325 27.732047 235.77539 26.246094 C 234.28753 24.76014 232.65529 23.416883 230.86523 22.207031 C 229.07518 20.99718 227.12784 19.920504 225.00977 18.960938 C 222.8917 18.001371 220.60277 17.158925 218.13086 16.423828 C 215.65895 15.688731 213.00392 15.059882 210.15234 14.523438 C 207.30077 13.986993 204.25316 13.543296 200.99609 13.179688 C 197.73903 12.816079 194.27236 12.532996 190.58398 12.316406 C 183.20722 11.883228 174.94251 11.71875 165.68555 11.71875 L 131 11.71875 L 131 164.05469 L 250.11914 164.05469 z" transform="matrix(0.26458333,0,0,0.26458333,0,229.26666)" style="fill:#21af2b"/>
  <path style="opacity:0.5;fill:none;stroke:url(#linearGradient1108);stroke-width:8;stroke-linecap:round;stroke-linejoin:round" d="M 361.9375,-212 C 507.2348,-212 528,-191.28677 528,-46.125 V 70.125 C 528,215.28618 507.2348,236 361.9375,236 H 214.0625 C 68.7652,236 48,215.28618 48,70.125 V -46.125 C 48,-191.28677 68.7652,-212 214.0625,-212 Z" clip-path="url(#clipPath1082)" transform="matrix(0.13485389,0,0,0.13485389,-4.9712557,260.95615)"/>
 </g>
</svg>
